pipe.svg

<svg fill="currentColor" viewBox="0 0 24 24"><path d="M22 14h-2v2h-6v-3h2v-2h-2V6a2 2 0 0 0-2-2H4V2H2v8h2V8h6v3H8v2h2v5a2 2 0 0 0 2 2h8v2h2"/></svg>

<svg  viewBox="0 0 24 24" fill="currentColor"><path  d="M22,14H20V16H14V13H16V11H14V6A2,2 0 0,0 12,4H4V2H2V10H4V8H10V11H8V13H10V18A2,2 0 0,0 12,20H20V22H22"/></svg>
